X:14
T:Mile End Assembly THO1.014
M:6/8
L:1/8
Z:vmp. Peter Dunk 2012.from a transcription by Fynn Titford-Mock 2006
B:Thompson's Compleat Collection of 200 Favourite Country Dances Vol.I,1758
Q:3/8=100
K:F
f/e/|f2 c A2 G| FAG F2 f|a>ba g2 f|efg cfg|\
afd gec|fdc =Bgf|e>fg Gc=B|c2 C C2:|
|:g/f/|e2 g c2 a/g/|f2 a d2 b|agf ed^c|d2 d d2 e/f/|\
dfb cea|Bdg A2 f/e/|d>ef cfe|f3 f2:|

